X:1
T: Valse des Jouets
I:
I:
C: W-19
C: Michel Faubert
M: 3/4
Z:
R: waltz
K: D
F Ad|"D"fe fg fe| "G"dB AF D2| "D"fe fg fe| "G"dB AF D2|\
     "Em"ed ef ed| "A"c3d cB| "G"AE AB cA| "D"dB AF "A7"Ad|
     "D"fe fg fe| "G"dB AF D2| "D"fe fg fe| "Bm"dB AF D2|\
     "Em"ed ef ed| "A"c3d cB| "G"AB AG "A7"FE| "D"D3:|
|:\
d dc| "D"dA FA dA| "G"B3d dB| "A"cA Bc de| "D"f3f df|\
      "Bm"bf df bf| "Em"g3e ed| "A7"ce Ac ae| "D"f3d dc|
      "Bm"BF FB BF| "G"G3e ed| "A"cB AG FE| "F#"F4- F2|\
      "G"GF GA Bc| "D"de f3f| "A7"ge ce BA| "D"d3:|
%
